assets/gcpautomltables/original.svg

<svg height="24" width="24" xmlns="http://www.w3.org/2000/svg"><path d="m19.74 10.23.31-.55m-13.23 9.78.95 1.65h9.49l4.74-8.22-1.9-3.29-4.74 8.21h-7.59zm10.36-14.92-.95-1.65h-9.49l-4.74 8.22 1.9 3.29 4.74-8.21h7.59z" fill="#4285f4"/><path d="m13.61 13.32 1.43.91v-4.24l-3.39-2.01v1.96l1.96 1.16z" fill="#669df6"/><path d="m12.68 16v-4.22l-3.39-2v4.08z" fill="#aecbfa"/></svg>

<svg xmlns="http://www.w3.org/2000/svg" width="24" height="24"><path fill="#4285f4" d="m19.74 10.23.31-.55M6.82 19.46l.95 1.65h9.49L22 12.89 20.1 9.6l-4.74 8.21H7.77zM17.18 4.54l-.95-1.65H6.74L2 11.11l1.9 3.29 4.74-8.21h7.59z"/><path fill="#669df6" d="m13.61 13.32 1.43.91V9.99l-3.39-2.01v1.96l1.96 1.16z"/><path fill="#aecbfa" d="M12.68 16v-4.22l-3.39-2v4.08z"/></svg>
